!!!COM: Bach, Johann Sebastian
!!!CDT: 1685/02/21/-1750/07/28/
!!!OTL@@DE:	Herzliebester Jesu, was hast du verbrochen
!!!SCT: BWV 244/3
!!!PC#:	78
!!!AGN: chorale
**harm	**kern	**kern	**kern	**kern
*	*ICvox	*ICvox	*ICvox	*ICvox
*	*Ibass	*Itenor	*Ialto	*Isoprn
*	*I"Bass	*I"Tenor	*I"Alto	*I"Soprano
*	*	*oclefC4	*oclefC3	*oclefC1
*	*clefF4	*clefGv2	*clefG2	*clefG2
*k[f#c#]	*k[f#c#]	*k[f#c#]	*k[f#c#]	*k[f#c#]
*b:	*b:	*b:	*b:	*b:
*M4/4	*M4/4	*M4/4	*M4/4	*M4/4
*met(c)	*met(c)	*met(c)	*met(c)	*met(c)
*MM100	*MM100	*MM100	*MM100	*MM100
i	4B	4d	4f#	4b
=1	=1	=1	=1	=1
iv	4E	4e	4g	4b
VI	4G	4B	4d	4b
V	4F#	4c#	4f#	4a#
V2	4E	4A#	4c#	4f#
=2	=2	=2	=2	=2
i6	4D	4B	4f#	4b
V	4F#	4A#	4f#	4cc#
i	4BB	4B	4f#	4dd
i	4B	4d	4f#	4dd
=3	=3	=3	=3	=3
V65	4A#	4c#	4f#	4ee
i	4B	4B	4f#	4dd
V;	4F#;	4A#X;	4f#;	4cc#;
V	4F#	4A#	4f#	4cc#
=4	=4	=4	=4	=4
i	4B	4B	4f#	4dd
D:V	4AnX	4c#	4a	4ee
I	4D	4d	4a	4ff#
IV	4G	4B	4b	4dd
=5	=5	=5	=5	=5
IV6	4B	4d	4g	4gg
V65	4c#	4e	4a	4gg
V	4c#	4e	4a	4ee
vi	4B	4d	4dd	4ff#
=6	=6	=6	=6	=6
ii65	4G	4d	4b	4ee
V7	4A	4c#	4g	4ee
I;	4D;	4d;	4f#;	4dd;
vi	4BB	4B	4f#	4dd
=7	=7	=7	=7	=7
viio6	4E	4G	4e	4cc#
IV	4G	4G	4d	4b
V6	4C#	4E	4e	4a
I	4D	4A	4d	4f#
=8	=8	=8	=8	=8
I	8dL	8dL	8f#L	8aL
V2/IV	8cJ	8dJ	8f#J	8aJ
V64/IV	4A	4d	4f#	4a
IV	4G	4d	4g	4b
viio7/ii	4D#	4cnX	4f#	4a
=9	=9	=9	=9	=9
ii	2E	2B	2e	2g
b:V65;	4AA#X;	4c#X;	4e;	4f#;
i	4BB	4B	4d	4ff#
=10	=10	=10	=10	=10
ii%7	8C#L	8BL	8gL	8eeL
viio65	8C#J	8A#J	8gJ	8eeJ
i6	4D	4B	4f#	4dd
V(54)	4F#	4B	4f#	4cc#
V7	4F#	4A#	4e	4cc#
=11	=11	=11	=11	=11
i;	2.BB;	2.F#;	2.d#;	2.b;
==	==	==	==	==
*-	*-	*-	*-	*-
!!!YOR1: 371 vierstimmige Choralges&auml;nge von Johann Sebastian Bach, 
!!!YOR2: 4th ed. by Alfred D&ouml;rffel (Leipzig: Breitkopf und H&auml;rtel, 
!!!YOR2: c.1875). 178 pp. Plate "V.A.10".  reprint: J.S. Bach, 371 Four-Part 
!!!YOR4: Chorales (New York: Associated Music Publishers, Inc., c.1940).
!!!SMS: B&H, 4th ed, Alfred D&ouml;rffel, c.1875, plate V.A.10
!!!EED:  Craig Stuart Sapp
!!!EEV:  2009/05/22
